X: 37
T:Varsoviena
R:Waltz
C:Traditional
S:Albion Band
D:Battle of the Field Albion Ban
M:3/4
L:1/4
K:C
e/2f/2 |: "C"g c' b | "F"f2 d/2e/2 | "F"f a g |  "C"e2 c/2d/2 |
"C"e ^d e | "F"f2 f/2g/2 |1 "F"a g "G"f | "C"e2 e/2f/2 |2 "F"a g "G"B | 
"C"c2 c'/2b/2
|: "D"a/2^f/2 d/2 z c'/2b/2 | a/2^f/2 d/2 z d/2c/2 |
   "G"B/2d/2 g ^f/2d/2 | "C"e2 c'/2b/2 |
   "D"a/2^f/2 d/2 z c'/2b/2 | a/2^f/2 d/2 z d/2c/2 | "G"B/2d/2 g f/2d/2 
|1 "C"c2 c'/2b/2:|2 "C"(c2c) ||
